src/Assets/icons/gitlab-outline.svg

<svg fill="currentColor" class="svg-icon" viewBox="0 0 24 24" xmlns="http://www.w3.org/2000/svg">
  <path fill-rule="evenodd" d="M14.381966,9 L17.1055728,3.5527864 C17.510563,2.74280594 18.6976082,2.84525834 18.9578263,3.71265211 L21.9578263,13.7126521 C22.0764694,14.1081293 21.9398565,14.5358621 21.6139406,14.7893522 L12.6139406,21.7893522 C12.2528301,22.0702159 11.7471699,22.0702159 11.3860594,21.7893522 L2.38605939,14.7893522 C2.06014352,14.5358621 1.92353056,14.1081293 2.04217371,13.7126521 L5.04217371,3.71265211 C5.30239185,2.84525834 6.48943696,2.74280594 6.89442719,3.5527864 L9.61803399,9 L14.381966,9 Z M17.7667436,6.7025808 L15.8944272,10.4472136 C15.7250352,10.7859976 15.3787721,11 15,11 L9,11 C8.62122794,11 8.27496482,10.7859976 8.10557281,10.4472136 L6.23325641,6.7025808 L4.15466686,13.6312126 L12,19.7331384 L19.8453331,13.6312126 L17.7667436,6.7025808 Z"/>
</svg>

<svg fill="currentColor" class="svg-icon" viewBox="0 0 24 24" xmlns="http://www.w3.org/2000/svg"><path fill-rule="evenodd" d="m14.382 9 2.724-5.447c.405-.81 1.592-.708 1.852.16l3 10a1 1 0 0 1-.344 1.076l-9 7a1 1 0 0 1-1.228 0l-9-7a1 1 0 0 1-.344-1.076l3-10c.26-.868 1.447-.97 1.852-.16L9.618 9h4.764Zm3.385-2.297-1.873 3.744A1 1 0 0 1 15 11H9a1 1 0 0 1-.894-.553L6.233 6.703 4.155 13.63 12 19.733l7.845-6.102-2.078-6.928Z"/></svg>
